X: 21427
T: Kettledrum
R: reel
M: 4/4
K: Fmajor
|:ABcB A2 G2|D2 G2 D2 G2|ABcB A2 G2|D2 B2 G4:|
|:AB c2 c3 d|c3 d c2 A2|Bc d2 d2 ^c2|d4 d2 Bc|
dcBA GABG|A2 D2 D4|B,C D2 D2 B2|G4 G4:|

